X: 10208
T: Dirty Big Nor' Easter, The
R: polka
M: 2/4
K: Gmajor
|:G,>A, B,D|~ED B,D|GB AF|GD B,D|
G,>A, B,D|ED B,A/B/|AF DE/F/|G2 G2:|
|:A>B c/B/A|FA G~B|AG Ac|~BA GB|AB AG|
FD GA/B/|1 cA FD|G2 G2:|2 cA FA|G2 G2||
|:A,>B, CA,|B,D GE|FD EF|ED CD|A,>B, CD|
EF GA/B/|1 cA FD|G2 G2:|2 cA FA|G2 G2||

